img/user2.svg

<svg viewBox="0 0 512 512" xmlns="http://www.w3.org/2000/svg"><path d="m256 288a144 144 0 1 0 -144-144 144 144 0 0 0 144 144zm128 32h-55.1a174.08 174.08 0 0 1 -145.8 0h-55.1a128 128 0 0 0 -128 128v16a48 48 0 0 0 48 48h416a48 48 0 0 0 48-48v-16a128 128 0 0 0 -128-128z" fill="#f47920"/></svg>

<svg xmlns="http://www.w3.org/2000/svg" viewBox="0 0 512 512"><defs><style>.cls-1{fill:#f47920;}</style></defs><title>Ресурс 1</title><g id="Слой_2" data-name="Слой 2"><g id="Слой_1-2" data-name="Слой 1"><path class="cls-1" d="M256,288A144,144,0,1,0,112,144,144,144,0,0,0,256,288Zm128,32H328.9a174.08,174.08,0,0,1-145.8,0H128A128,128,0,0,0,0,448v16a48,48,0,0,0,48,48H464a48,48,0,0,0,48-48V448A128,128,0,0,0,384,320Z"/></g></g></svg>
